!!!COM: Music21
!!!OTL: Mazurca
!!!OMV: pezas_mazurcas_mazurca-2_mazurca-partitura.musicxml
**kern
*I"Bagpipes
*I'Bag
*clefG^2
*k[]
*M3/4
=1
!LO:TX:a:t=Allegro
4ee
4ee
8eeL
8ccJ
=
4ff
4ff
8ffL
8ddJ
=
4gg
2gg
=
8ggL
8ggJ
8ggL
8ffJ
8aaL
8ggJ
=
4ff
8eeL
8ddJ
4ee
=
8ffL
8ffJ
8ffL
8eeJ
8ggL
8ffJ
=
4ee
8ddL
8ccJ
4dd
=
8eeL
8eeJ
8eeL
8ddJ
8ffL
8eeJ
!!linebreak:original
=
4dd
8ccL
8bJ
4cc
=
4ee
4ee
8eeL
8ccJ
=
4ff
4ff
8ffL
8ddJ
=
4gg
2gg
=
8ggL
8ggJ
8ggL
8ffJ
8aaL
8ggJ
=
4ff
8eeL
8ddJ
4ee
=
8ffL
8ffJ
8ffL
8ddJ
8ggL
8ffJ
=
4ee
8ddL
8ccJ
4dd
!!linebreak:original
=
8eeL
8ffJ
8ggL
8ffJ
8ddL
8bJ
=
4cc
2cc
=||
*M3/4
!LO:TX:a:t=Allegro
4ee
4ee
8eeL
8ccJ
=
4ff
4ff
8ffL
8ddJ
=
4gg
2gg
=
8ggL
8ggJ
8ggL
8ffJ
8aaL
8ggJ
=
4ff
8eeL
8ddJ
4ee
=
8ffL
8ffJ
8ffL
8eeJ
8ggL
8ffJ
!!linebreak:original
=
4ee
8ddL
8ccJ
4dd
=
8eeL
8eeJ
8eeL
8ddJ
8ffL
8eeJ
=
4dd
8ccL
8bJ
4cc
=
4ee
4ee
8eeL
8ccJ
=
4ff
4ff
8ffL
8ddJ
=
4gg
2gg
=
8ggL
8ggJ
8ggL
8ffJ
8aaL
8ggJ
=
4ff
8eeL
8ddJ
4ee
!!linebreak:original
=
8ffL
8ffJ
8ffL
8ddJ
8ggL
8ffJ
=
4ee
8ddL
8ccJ
4dd
=
8eeL
8ffJ
8ggL
8ffJ
8ddL
8bJ
=
4.cc
8gg
8ffL
8eeJ
=||
8ddL
16eeL
16ddJJ
8ccL
8ffJ
8eeL
8ddJ
=
8ccL
16ddL
16ccJJ
8bL
8ccJ
8ddL
8eeJ
!!linebreak:original
=
8ggL
8ffJ
8eeL
8ggJ
8ffL
8eeJ
=
8ddL
16eeL
16ddJJ
8ccL
8ggJ
8ffL
8eeJ
=
8ddL
16eeL
16ddJJ
8ccL
8ffJ
8eeL
8ddJ
=
8ccL
16ddL
16ccJJ
8bL
8ccJ
8ddL
8eeJ
=
8ggL
8ffJ
8eeL
8ffJ
8ddL
8bJ
=
4.cc
8gg
8ffL
8eeJ
!!linebreak:original
=||
8ddL
16eeL
16ddJJ
8ccL
8ffJ
8eeL
8ddJ
=
8ccL
16ddL
16ccJJ
8bL
8ccJ
8ddL
8eeJ
=
8ggL
8ffJ
8eeL
8ggJ
8ffL
8eeJ
=
8ddL
16eeL
16ddJJ
8ccL
8ggJ
8ffL
8eeJ
=
8ddL
16eeL
16ddJJ
8ccL
8ffJ
8eeL
8ddJ
=
8ccL
16ddL
16ccJJ
8bL
8ccJ
8ddL
8eeJ
!!linebreak:original
=
8ggL
8ffJ
8eeL
8ffJ
8ddL
8bJ
=
2.cc
==
*-
